X: 21462
T: BE SHARP BEFORE IT'S DARK -- Reel
R: reel
B: K\"ohler's Violin Repository, v.2, 1885 p.146 #2
F: http://www.archive.org/details/klersviolinrepos02rugg
Z: 2012 John Chambers <jc:trillian.mit.edu>
M: C|
L: 1/8
K: Em
|:\
v(EF)GA (BA)B^c | (dB)AG (Fd)AF | (EF)GA (BA)Bg | g(fe=d) e2E2 :|
vefge bgeg | fedg fagf | efge bgeg | f(e^df) e2E2 |
 efge bgeg | fedg fagf | gef^d eBcA | B(gfg) ecBA "_D.C."|]

%%sep 2 1 500

